build/img/icon-search.svg

<svg width="14" height="14" viewBox="0 0 14 14" fill="none" xmlns="http://www.w3.org/2000/svg">
<path d="M11.0482 10.0737L14 13.0248L13.0248 14L10.0737 11.0482C8.9757 11.9285 7.60993 12.4072 6.20262 12.4052C2.77877 12.4052 0 9.62646 0 6.20262C0 2.77877 2.77877 0 6.20262 0C9.62646 0 12.4052 2.77877 12.4052 6.20262C12.4072 7.60993 11.9285 8.9757 11.0482 10.0737ZM9.66575 9.56237C10.5404 8.66291 11.0289 7.45722 11.0269 6.20262C11.0269 3.53687 8.86768 1.37836 6.20262 1.37836C3.53687 1.37836 1.37836 3.53687 1.37836 6.20262C1.37836 8.86768 3.53687 11.0269 6.20262 11.0269C7.45722 11.0289 8.66291 10.5404 9.56237 9.66575L9.66575 9.56237Z" fill="currentColor"/>
</svg>

<svg width="14" height="14" fill="none" xmlns="http://www.w3.org/2000/svg"><path d="M11.048 10.074L14 13.024l-.975.976-2.951-2.952A6.205 6.205 0 010 6.202 6.205 6.205 0 016.203 0a6.205 6.205 0 014.845 10.074zm-1.382-.512a4.808 4.808 0 001.36-3.36 4.823 4.823 0 00-4.823-4.824 4.822 4.822 0 00-4.825 4.825 4.823 4.823 0 004.825 4.824 4.808 4.808 0 003.36-1.361l.103-.104z" fill="currentColor"/></svg>
